img/066-syrup.svg

<?xml version="1.0"?>
<svg xmlns="http://www.w3.org/2000/svg" viewBox="0 0 512 512" width="512" height="512"><g id="Filled_outline" data-name="Filled outline"><path d="M224,24h64a8,8,0,0,1,8,8V80a0,0,0,0,1,0,0H216a0,0,0,0,1,0,0V32A8,8,0,0,1,224,24Z" style="fill:#7a432a"/><path d="M388.03,336.95c-2.58,27.5-7.5,54.7-13.34,81.68-.68,3.14-5.41,25.5-9.32,43.99A32,32,0,0,1,334.06,488H177.94a32,32,0,0,1-31.31-25.38c-3.91-18.49-8.64-40.85-9.32-43.99q-2.61-12.075-4.94-24.21c-3.63-19.03-6.59-38.17-8.4-57.47-4.64-49.6-4.13-107.7,21.79-151.68,21.06-35.73,57.33-62.23,69.59-103.09L216,80h80l.65,2.18c12.26,40.86,48.53,67.36,69.59,103.09a151.259,151.259,0,0,1,13.51,30.48C392.14,254.13,391.66,298.14,388.03,336.95Z" style="fill:#92563a"/><path d="M388.03,336.95c-2.58,27.5-7.5,54.7-13.34,81.68-.68,3.14-5.41,25.5-9.32,43.99A32,32,0,0,1,334.06,488H177.94a32,32,0,0,1-31.31-25.38c-3.91-18.49-8.64-40.85-9.32-43.99q-2.61-12.075-4.94-24.21c95.56-26.21,185.22-80.7,247.38-178.67C392.14,254.13,391.66,298.14,388.03,336.95Z" style="fill:#804a32"/><path d="M352,304a161.069,161.069,0,0,1-12.85,64,127.727,127.727,0,0,1-19.66,32c-16.92,19.91-39.14,32-63.49,32s-46.57-12.09-63.49-32a122.836,122.836,0,0,1-14.12-20.66c-1.99-3.64-3.84-7.43-5.54-11.34A161.069,161.069,0,0,1,160,304c0-63.42,34.6-116.07,80-126.23a73.2,73.2,0,0,1,32,0c34.64,7.75,63,40.25,74.48,83.39A166.029,166.029,0,0,1,352,304Z" style="fill:#fa9f0c"/><path d="M352,304a161.069,161.069,0,0,1-12.85,64,127.727,127.727,0,0,1-19.66,32c-16.92,19.91-39.14,32-63.49,32s-46.57-12.09-63.49-32a122.836,122.836,0,0,1-14.12-20.66c62.45-24.02,120.66-61.89,168.09-118.18A166.029,166.029,0,0,1,352,304Z" style="fill:#f5980c"/><path d="M334.4,368A80,80,0,1,0,177.6,368Z" style="fill:#ffcb73"/><path d="M320.01,304H320a16,16,0,0,0-16,16v31.59A16.268,16.268,0,0,1,288.129,368,15.978,15.978,0,0,1,272,352V320.41A16.268,16.268,0,0,0,256.129,304,15.978,15.978,0,0,0,240,320a16,16,0,1,1-32,0v-8a15.978,15.978,0,0,0-10.18-14.9,79.916,79.916,0,0,1,31.572-20.552A15.946,15.946,0,0,0,240,261.49V177.77a73.2,73.2,0,0,1,32,0v83.71a15.922,15.922,0,0,0,10.568,15.046A80.19,80.19,0,0,1,320.01,304Z" style="fill:#eb7206"/><path d="M339.15,368a127.727,127.727,0,0,1-19.66,32c-16.92,19.91-39.14,32-63.49,32s-46.57-12.09-63.49-32a127.727,127.727,0,0,1-19.66-32Z" style="fill:#92563a"/><path d="M288,24H264a8,8,0,0,1,8,8V80h24V32A8,8,0,0,0,288,24Z" style="fill:#6e3c26"/><path d="M373.134,181.21c-8.53-14.475-19.414-27.442-29.94-39.983-16.385-19.523-31.862-37.963-38.877-61.344l-.007-.024L304,78.826V32a16.019,16.019,0,0,0-16-16H224a16.019,16.019,0,0,0-16,16V78.826l-.31,1.033-.007.024c-7.015,23.381-22.492,41.821-38.877,61.344-10.526,12.541-21.41,25.508-29.94,39.983-22.085,37.476-29.348,87.2-22.857,156.489,2.288,24.426,6.571,50.679,13.479,82.618.531,2.452,3.666,17.243,9.319,43.963A40.186,40.186,0,0,0,177.94,496H334.06a40.186,40.186,0,0,0,39.133-31.72c5.653-26.72,8.788-41.511,9.319-43.964,6.908-31.938,11.191-58.191,13.479-82.617C402.482,268.411,395.219,218.686,373.134,181.21ZM224,32h64V72H224ZM380.061,336.207c-2.228,23.775-6.417,49.427-13.187,80.727-.536,2.475-3.676,17.291-9.334,44.035A24.112,24.112,0,0,1,334.06,480H177.94a24.112,24.112,0,0,1-23.48-19.031c-5.658-26.744-8.8-41.56-9.334-44.035-6.77-31.3-10.959-56.952-13.187-80.727-6.077-64.871.7-112.913,20.711-146.874,7.855-13.329,17.84-25.226,28.411-37.82C197.023,132.5,213.5,112.86,221.887,88h68.226a119.057,119.057,0,0,0,6.794,16H232v16h74.377c7.478,11.135,16.087,21.416,24.562,31.513C341.51,164.107,351.5,176,359.35,189.333,379.363,223.294,386.138,271.336,380.061,336.207ZM273.742,169.962a81.557,81.557,0,0,0-35.489,0,89.362,89.362,0,0,0-35.227,16.9l9.786,12.659A76.8,76.8,0,0,1,232,188.576V261.49A7.947,7.947,0,0,1,226.735,269,88.259,88.259,0,0,0,192,291.611c-.017.018-.03.038-.047.056a87.628,87.628,0,0,0-21.578,40A161.541,161.541,0,0,1,168,304c0-36.863,12.24-71.188,33.581-94.176l-11.726-10.886C165.8,224.851,152,263.145,152,304a169.878,169.878,0,0,0,13.509,67.18,135.463,135.463,0,0,0,20.905,34C205.5,427.634,230.208,440,256,440s50.505-12.366,69.585-34.818a135.428,135.428,0,0,0,20.9-33.994A169.879,169.879,0,0,0,360,304C360,237.519,323.726,181.148,273.742,169.962ZM232.05,284.094A23.971,23.971,0,0,0,248,261.49V184.516a65.535,65.535,0,0,1,16,0V261.48a23.936,23.936,0,0,0,15.913,22.592,71.734,71.734,0,0,1,26.288,16.3A23.987,23.987,0,0,0,296,320v31.59a8.236,8.236,0,0,1-7.934,8.41,7.857,7.857,0,0,1-5.719-2.327A7.985,7.985,0,0,1,280,352V320.41A24.274,24.274,0,0,0,256.192,296,23.978,23.978,0,0,0,232,320a8,8,0,1,1-16,0v-8a23.9,23.9,0,0,0-5.727-15.606A72.1,72.1,0,0,1,232.05,284.094Zm84.383,28.757A71.345,71.345,0,0,1,328,352a72.836,72.836,0,0,1-.454,8H310.522A24.555,24.555,0,0,0,312,351.59V320A8,8,0,0,1,316.433,312.851Zm-117.472-4.773A7.984,7.984,0,0,1,200,312v8a24,24,0,1,0,48,0,7.968,7.968,0,0,1,2.327-5.653A7.839,7.839,0,0,1,256.066,312,8.236,8.236,0,0,1,264,320.41V352a24.013,24.013,0,0,0,1.362,8h-80.9a72.823,72.823,0,0,1-.455-8A71.652,71.652,0,0,1,198.961,308.078Zm114.433,86.741C297.4,413.637,277.02,424,256,424s-41.4-10.363-57.4-29.182A114.511,114.511,0,0,1,185.693,376H326.307A114.429,114.429,0,0,1,313.394,394.819ZM344,304a161.454,161.454,0,0,1-2.367,27.611A87.243,87.243,0,0,0,326.41,299.2l0,0,0,0a87.825,87.825,0,0,0-41.184-30.216,7.917,7.917,0,0,1-5.222-7.5v-72.9c16.242,6.328,31,19.03,42.289,36.644C336.29,247.082,344,275.057,344,304ZM224,388h64v16H224Z"/></g></svg>

<svg xmlns="http://www.w3.org/2000/svg" viewBox="0 0 512 512">
  <g id="Filled_outline" data-name="Filled outline">
    <path d="M224 24h64a8 8 0 0 1 8 8v48h-80V32a8 8 0 0 1 8-8Z" fill="#7a432a"/>
    <path d="M388 337a692.2 692.2 0 0 1-13.3 81.6l-9.3 44A32 32 0 0 1 334 488H177.9a32 32 0 0 1-31.3-25.4l-9.3-44q-2.6-12-5-24.2c-3.6-19-6.5-38.1-8.3-57.4-4.7-49.6-4.2-107.7 21.8-151.7 21-35.8 57.3-62.3 69.5-103.1l.7-2.2h80l.7 2.2c12.2 40.8 48.5 67.3 69.5 103a151.3 151.3 0 0 1 13.6 30.6C392 254 391.6 298 388 336.9Z" fill="#92563a"/>
    <path d="M388 337a692.2 692.2 0 0 1-13.3 81.6l-9.3 44A32 32 0 0 1 334 488H177.9a32 32 0 0 1-31.3-25.4l-9.3-44q-2.6-12-5-24.2c95.6-26.2 185.3-80.7 247.4-178.6 12.4 38.3 12 82.3 8.3 121.1Z" fill="#804a32"/>
    <path d="M352 304a161 161 0 0 1-12.8 64 127.7 127.7 0 0 1-19.7 32c-17 20-39.2 32-63.5 32s-46.6-12-63.5-32a122.8 122.8 0 0 1-14.1-20.7c-2-3.6-3.9-7.4-5.6-11.3a161 161 0 0 1-12.8-64c0-63.4 34.6-116 80-126.2a73.2 73.2 0 0 1 32 0c34.6 7.7 63 40.2 74.5 83.4A166 166 0 0 1 352 304Z" fill="#fa9f0c"/>
    <path d="M352 304a161 161 0 0 1-12.8 64 127.7 127.7 0 0 1-19.7 32c-17 20-39.2 32-63.5 32s-46.6-12-63.5-32a122.8 122.8 0 0 1-14.1-20.7 408 408 0 0 0 168-118.1A166 166 0 0 1 352 304Z" fill="#f5980c"/>
    <path d="M334.4 368a80 80 0 1 0-156.8 0Z" fill="#ffcb73"/>
    <path d="M320 304a16 16 0 0 0-16 16v31.6a16.3 16.3 0 0 1-15.9 16.4 16 16 0 0 1-16.1-16v-31.6a16.3 16.3 0 0 0-15.9-16.4 16 16 0 0 0-16.1 16 16 16 0 1 1-32 0v-8a16 16 0 0 0-10.2-14.9 80 80 0 0 1 31.6-20.6 16 16 0 0 0 10.6-15v-83.7a73.2 73.2 0 0 1 32 0v83.7a16 16 0 0 0 10.6 15A80.2 80.2 0 0 1 320 304Z" fill="#eb7206"/>
    <path d="M339.1 368a127.7 127.7 0 0 1-19.6 32c-17 20-39.2 32-63.5 32s-46.6-12-63.5-32a127.7 127.7 0 0 1-19.7-32Z" fill="#92563a"/>
    <path d="M288 24h-24a8 8 0 0 1 8 8v48h24V32a8 8 0 0 0-8-8Z" fill="#6e3c26"/>
    <path d="M373.1 181.2c-8.5-14.5-19.4-27.4-30-40-16.3-19.5-31.8-38-38.8-61.3l-.3-1V32a16 16 0 0 0-16-16h-64a16 16 0 0 0-16 16v46.8l-.3 1c-7 23.5-22.5 41.9-38.9 61.4-10.5 12.6-21.4 25.5-30 40-22 37.5-29.3 87.2-22.8 156.5 2.3 24.4 6.6 50.7 13.5 82.6l9.3 44A40.2 40.2 0 0 0 178 496h156.2a40.2 40.2 0 0 0 39-31.7l9.4-44c7-32 11.2-58.2 13.5-82.6 6.5-69.3-.8-119-22.9-156.5ZM224 32h64v40h-64Zm156 304.2A679 679 0 0 1 367 417l-9.4 44a24.1 24.1 0 0 1-23.4 19.1H177.9a24.1 24.1 0 0 1-23.4-19l-9.4-44a679 679 0 0 1-13.2-80.8c-6-64.9.7-113 20.7-146.9a285.8 285.8 0 0 1 28.5-37.8c16-19 32.4-38.6 40.8-63.5H290a119 119 0 0 0 6.8 16H232v16h74.4c7.5 11.1 16 21.4 24.5 31.5 10.6 12.6 20.6 24.5 28.5 37.8 20 34 26.7 82 20.7 147ZM273.8 170a81.6 81.6 0 0 0-35.4 0 89.4 89.4 0 0 0-35.3 16.9l9.8 12.6a76.8 76.8 0 0 1 19.2-11v73a8 8 0 0 1-5.3 7.5 88.3 88.3 0 0 0-34.7 22.6 87.6 87.6 0 0 0-21.6 40A161.5 161.5 0 0 1 168 304c0-36.9 12.2-71.2 33.6-94.2L189.9 199C165.8 225 152 263.1 152 304a169.9 169.9 0 0 0 13.5 67.2 135.5 135.5 0 0 0 21 34c19 22.4 43.7 34.8 69.5 34.8s50.5-12.4 69.6-34.8a135.4 135.4 0 0 0 20.9-34A169.9 169.9 0 0 0 360 304c0-66.5-36.3-122.9-86.3-134Zm-41.6 114a24 24 0 0 0 15.9-22.5v-77a65.5 65.5 0 0 1 16 0v77a24 24 0 0 0 16 22.6 71.7 71.7 0 0 1 26.2 16.3A24 24 0 0 0 296 320v31.6a8.2 8.2 0 0 1-8 8.4 7.9 7.9 0 0 1-5.7-2.3 8 8 0 0 1-2.3-5.7v-31.6a24.3 24.3 0 0 0-23.8-24.4 24 24 0 0 0-24.2 24 8 8 0 1 1-16 0v-8a23.9 23.9 0 0 0-5.7-15.6A72.1 72.1 0 0 1 232 284Zm84.3 28.9A71.3 71.3 0 0 1 328 352a72.8 72.8 0 0 1-.5 8h-17a24.6 24.6 0 0 0 1.5-8.4V320a8 8 0 0 1 4.4-7.1ZM199 308a8 8 0 0 1 1 3.9v8a24 24 0 1 0 48 0 8 8 0 0 1 2.3-5.7 7.8 7.8 0 0 1 5.8-2.3 8.2 8.2 0 0 1 7.9 8.4V352a24 24 0 0 0 1.4 8h-81a72.8 72.8 0 0 1-.4-8 71.7 71.7 0 0 1 15-44Zm114.4 86.7C297.4 413.6 277 424 256 424s-41.4-10.4-57.4-29.2a114.5 114.5 0 0 1-13-18.8h140.7a114.4 114.4 0 0 1-13 18.8ZM344 304a161.5 161.5 0 0 1-2.4 27.6 87.2 87.2 0 0 0-15.2-32.4 87.8 87.8 0 0 0-41.2-30.2 8 8 0 0 1-5.2-7.5v-73c16.2 6.4 31 19.1 42.3 36.7 14 21.9 21.7 49.9 21.7 78.8Zm-120 84h64v16h-64Z"/>
  </g>
</svg>
